src/assets/icons/toggle-off.svg

<svg viewBox="0 0 640 640" xmlns="http://www.w3.org/2000/svg"><path d="m416 192c70.7 0 128 57.3 128 128s-57.3 128-128 128h-192c-70.7 0-128-57.3-128-128s57.3-128 128-128zm192 128c0-106-86-192-192-192h-192c-106 0-192 86-192 192s86 192 192 192h192c106 0 192-86 192-192zm-384 80c44.2 0 80-35.8 80-80s-35.8-80-80-80-80 35.8-80 80 35.8 80 80 80z"/></svg>

<svg xmlns="http://www.w3.org/2000/svg" viewBox="0 0 640 640"><!--!Font Awesome Free 7.0.1 by @fontawesome - https://fontawesome.com License - https://fontawesome.com/license/free Copyright 2025 Fonticons, Inc.--><path d="M416 192C486.7 192 544 249.3 544 320C544 390.7 486.7 448 416 448L224 448C153.3 448 96 390.7 96 320C96 249.3 153.3 192 224 192L416 192zM608 320C608 214 522 128 416 128L224 128C118 128 32 214 32 320C32 426 118 512 224 512L416 512C522 512 608 426 608 320zM224 400C268.2 400 304 364.2 304 320C304 275.8 268.2 240 224 240C179.8 240 144 275.8 144 320C144 364.2 179.8 400 224 400z"/></svg>
